X: 26309
T: Memories Of Sadie MacDonald
R: strathspey
M: 4/4
K: Cmajor
A|G<EE>D E<CC>A|G<Ec>E D/D/D D>A|G<EE>D E<CC>A|G<Ec>E C/C/C C:|
|:a|g<ce>d e<cc>a|g<ce>c d/d/d d>a|g<ce>d c/d/e/d/ c>G|A<cG>E C/C/C C:|

